X: 38037
T: Spider's Web, The
R: reel
M: 4/4
K: Dmajor
|:c|B2 FB DBFB|c2 Ac EcAc|d2 Bd bff^g|a2 ed cAAc|
B2 FB DBFB|c2 Ac EcAc|d2 Bd bff^g|afec B3:|
|:f|b2 fb dbBb|a2 ea caAa|g2 dg Bgdg|f2 cf Bfcf|
b2 fb dbBb|a2 ea caAc|d2 Bd bff^g|afec B3:|

